X:952
T:Fairy Boy
S:Bruce & Emmett's Drummers and Fifers Guide (1862), p. 95
M:3/4
L:1/8
Q:1/4=180
K:D
%%MIDI program 72
%%MIDI transpose 8
%%MIDI ratio 3 1
(3(ABc)|d>f A2 (3(ABc)|d>f b3a|b>a f3 d|e>f B2 (3(ABc)|d>f A2 (3(ABc)|d>f b3 a|b>a f3 d|e>f d2::
f2|a>f b3 a|f>d e3 d|a>f b3 a|f>d e2 (3(ABc)|d>f A2 (3(ABc)|d>f b3 a|b>a f3 d|e>f d2:|

